X:120
T: Geh mer net iwer mei Aeckerche, Aeckerche,
N: D0177
O: Europa, Mitteleuropa, Deutschland, Untermainfranken, Spessart
N: Inzipit = Transposition zum Lied
R: Scherz - Lied
M: 3/4
L: 1/8
K: F
F3FF2 | A2G2F2 | c3cc2 | c3cc2
F3FF2 | A2G2F2 | c4z2
d3dd2 | d2c2B2 | A3cc2 | A3cc2
e2d2c2 | B2A2G2 | c4z2
d3dd2 | d2c2B2 | A3cc2 | A3cc2
e2d2c2 | B2A2G2 | F4z2

